dist/icons/svgs/rotate-right-outline.svg

<svg xmlns="http://www.w3.org/2000/svg" width="24" height="24" fill="currentcolor" class="icon-rotate-right-outline" viewBox="0 0 24 24">
  <path d="M16.4922 6.80469C15.2812 5.78906 13.7188 5.125 12 5.125C8.17188 5.125 5.125 8.21094 5.125 12C5.125 15.8281 8.17188 18.875 12 18.875C13.5234 18.875 14.9688 18.3672 16.1016 17.5078C16.5312 17.1953 17.1172 17.2734 17.4297 17.7031C17.7422 18.1328 17.6641 18.7188 17.2344 19.0312C15.7891 20.125 13.9531 20.75 12 20.75C7.15625 20.75 3.25 16.8438 3.25 12C3.25 7.19531 7.15625 3.25 12 3.25C14.2266 3.25 16.2578 4.10938 17.8203 5.47656L18.9922 4.30469C19.2656 4.03125 19.6172 3.91406 19.9688 3.91406C20.75 3.875 21.375 4.5 21.375 5.28125V9.8125C21.375 10.3594 20.9453 10.75 20.4375 10.75H15.8672C15.0859 10.75 14.5 10.1641 14.5 9.38281C14.5 9.03125 14.6172 8.67969 14.8906 8.40625L16.4922 6.80469ZM19.5 6.45312L17.0391 8.875H19.5V6.45312Z"/>
</svg>

<svg xmlns="http://www.w3.org/2000/svg" width="24" height="24" fill="currentColor" class="icon-rotate-right-outline" viewBox="0 0 24 24">
  <path d="M16.492 6.805c-1.21-1.016-2.773-1.68-4.492-1.68A6.86 6.86 0 0 0 5.125 12 6.836 6.836 0 0 0 12 18.875a6.8 6.8 0 0 0 4.102-1.367.94.94 0 0 1 1.328.195.94.94 0 0 1-.196 1.328C15.79 20.125 13.954 20.75 12 20.75A8.736 8.736 0 0 1 3.25 12c0-4.805 3.906-8.75 8.75-8.75 2.227 0 4.258.86 5.82 2.227l1.172-1.172c.274-.274.625-.39.977-.39.781-.04 1.406.585 1.406 1.366v4.532c0 .546-.43.937-.937.937h-4.57A1.335 1.335 0 0 1 14.5 9.383c0-.352.117-.703.39-.977zm3.008-.352-2.46 2.422h2.46z"/>
</svg>
